X:1
T:Three Aspects
T:Three Aspects
T:Copyright © CPDL
T:Copyright © CPDL
T:Copyright © CPDL
T:Copyright © CPDL
T:Copyright © CPDL
Z:Copyright © CPDL
%%score 1 { ( 2 3 ) ( 4 5 ) }
L:1/8
Q:1/4=80
M:4/4
K:Eb
V:1 treble nm="P1"
V:2 treble nm="P2"
V:3 treble 
V:4 bass nm="P3"
V:5 bass 
V:1
"^Editor: John Henry Fowler""^(  Revision:   6 - 2 - 2008  )""^Slow.""^English Poet, Great Niece of Samuel Taylor Coleridge""^Words by Mary Elizabeth Coleridge - (1861 - 1907)""^From \"English Lyrics\" -  Set 9 -  Number 1" z8 | %1
w: |
 z4!mf! z2"^largamente" D2 | E2"^Charles Hubert Hastings Parry" G2"^( 1848 - 1918 )" B3 F | %3
w: Some|showed me Life as|
"^cresc." AGDE!f!!<(! c4!<)! | !>!f2 c2-!mf! c!<(!FG!<)!B | !>!B!>(!AA!>)!c F3 F | %6
w: 'twere a roy- al game,|Shin- ing _ in ev- ery|col- our of the sun, With|
"^cresc." GABc d2 =A2 | B3 d G4 |"^allargando" c4!<(! d!<)! B3 |"^a tempo" e6 z2 | %10
w: pri- zes to be played for,|one by one,|Love, Rich- es,|fame.|
 z4 z2!mf!"^Agitato, più mosso." G2 | c3 G A3 F | D>G (3!>!=Bcd G3 G | %13
w: Some|showed me Life as|'twere a ter- ri- ble fight, A|
!<(! !>!c2!<)! !>!c2 !>!c!<(!Afg!<)! | (af=B)c d3 G | ec=Bd !>!ge B>d | G4!mf! z4 | %17
w: ceas- less striv- ing 'gainst un-|num- * * \-~~bered foes, A|bat- tle e- ver har- der to the|close,|
 D2!<(! D4!<)! D2 | G4 z4 | z8 | z8 |"^rit." z8 |!p!"^meno mosso" e8 | %23
w: End- ing in|night.||||Thou~\-|
 G>!tenuto!G !tenuto!F!tenuto!E !>!_d3 c | !>!cG c4 z2 |!p! z"^poco animando" FC_D F>!<(!E G!<)!B | %26
w: thou did'st make of Life a|vi- sion deep|Of the deep hap- pi- ness the|
 _dc c4 z2 |"^cresc." z!<(! c=Bc!<)! e>=d dc | c3 B f4 |"^rit." z2!p! e2 _d2!>)!!>(! _F2 | E8 | %31
w: spir- it feels|When heaven- ly mu- sic Heav'n it-|\-~self re- veals|And pas- sions|sleep,|
 z4 z2 E2 | B6 D2 | G8- | G4 z4 | z8 | z8 | z8 | z8 |] %39
w: and|pas- sions|sleep.|_|||||
V:2
 !>![EBe]3 .[B,B] !>![G,EG]3 .[CE] | !>![CEc]3 .[A,A] [B,D]4 | %2
 z .[B,E] !tenuto![B,EG]2 z .[B,D] !tenuto![B,Dd]2 | z [B,EG] z!<(! [B,E] z [CEc] z!<)! [C=EB] | %4
 z .[CFA] !tenuto![FAc]2 z!<(! ([CEF] [B,EG])!<)![EGB] |!>(! (!>![GB] [FA]2)!>)! [CFc] z F2 F | %6
 z [B,E] z [CGc] z ([=A,-D^F] [A,^C=A][A,=CD]) | z [DGB] z!<(! [DBd] z ([CGc] [=E=e]!<)![Gcg]) | %8
"^allargando" z ([CFc] [Fcf]2) z ([DBd] [Ff])B |"^a tempo" !>![Beb]3 .[Gg] !>![Ece]3 .[CAc] | %10
 !>![CA]3 .[A,F] !>![G,=B,E]3 .[G,B,] | %11
!<(! ([E,C][F,D]!<)!!>(![A,F][G,E])!>)!!<(! ([F,CD][G,E]!<)!!>(![B,G]!>)![A,F]) | %12
 ([F,=B,D][G,E])[K:treble] (!>![GB][FA]) ([G,CE][Cc][EGe][Dd] | %13
 [CAc]) ([Ee][Aca][Gg]) ([cf]/F/)(A/a/) ([ac']/c/)(B/[gb]/) | x2 f2- fa x2 | %15
 (A[Gg]) !>!G2- (Gc) !>!G2- | (Gc) !>!C2- CE[K:bass] G,2- |!<(! (G,B,) !>!D,4!<)! D,2 | %18
 (!>![G,B,G]3 D)[K:bass] !>![E,G,B,]4 | (!>![B,DB]3 G) [G,B,^C]4 | %20
 !tenuto![DGB]3 .[B,B] !tenuto![GBdg]3 .[Dd] |"^rit." [Bgb]6 ([B-db-]2 | %22
 [Beb]2!<(! [Aa][Gg])!<)! ([Beb]2!>(! [Aa]!>)!c) | [_D-G_d-]4!>(! [DAd]3!>)! [Cc] | %24
 ([B,=EB]2!<(! [A,A][G,G])!<)! ([B,FB]2!>(! [A,A]!>)!C) | %25
 [A,_D]/(F,/D/A,/ A/F/D/A,/) z/ (B,/G,/D/ G/D/B,/E,/) | x2 E/A/c/E/ [EBe]2 E/_G/B/E/ | %27
 [E=A]2 =A,/F/A/C/ [CFc]2 F/A/c/F/ | [FBf]2 F/B/d/F/ [FBdf]2 F/B/d/B/ | %29
"^rit." [Beb]2 B,/B/e/E/ z2 B/_f/b/B/ | z2!>(! E/_G/e/_c/!>)! z2 e/_g/e'/_c'/ | [=ae'=a']6 z2 | %32
 (!arpeggio!.[B,EB]2 !arpeggio!.[=A,E=A]2 !arpeggio!.[_A,D_A]2) z2 | %33
 (!arpeggio!.[G,CG]2 !arpeggio!.[F,=B,F]2 !arpeggio!.[=E,C=E]2) z2 | %34
 z2"^rit." (!>![_EG]2 [DF]2"^Tempo Io." [CE]2) | !>![EBe]3!>(! .[B,B] !>![G,EG]3!>)! .[CE] | %36
 !>![CEc]3!>(! [A,A]!>)! D4 | z2 [E,G,E]4 [E,G,E]2- | [E,G,E]8 |] %39
V:3
 x8 | x4 (G,2 F,2) | x8 | x8 | x8 | C2 x2 x [CE] [B,D][B,D] | x8 | x8 | x8 | x8 | x8 | x8 | %12
 x2[K:treble] A,2 x x x2 | x8 | ([fa]/A/)(c/c'/) (=B/F/)(c/A/) (d/F/)(a/A/) ([Bd]/D/)(B/G/) | %15
 x2 ED C2 ED | C2 B,A, (G,2[K:bass] F,E,) | D,2 C,B,, (=A,,3 B,,) | x4[K:bass] x4 | x8 | x8 | x8 | %22
 x8 | x8 | x8 | x8 | x8 | x8 | x8 | x8 | x8 | x8 | x8 | x8 | z2 A,6 | x8 | x4 ([G,B,]2 [F,A,]2) | %37
 x8 | x8 |] %39
V:4
!f! [G,,E,B,]2 [G,,,G,,]2 [C,,C,]2 [C,G,]2 | %1
"^dim" [F,,C,E,A,]2 [F,,,F,,]2 [B,,,B,,]3"^largamente" [A,,,A,,] | %2
 [G,,,G,,][B,,E,] [B,,E,G,][G,,,G,,] [F,,,F,,][B,,F,] [F,A,][B,,,B,,] | %3
 [F,,,E,,][B,,E,G,] [G,,,G,,]!<(![B,,E,] [A,,,A,,][A,,E,A,] [C,,C,]!<)![C,G,] | %4
!f! [F,,,F,,][C,F,A,] [F,A,C][F,,,F,,]!mf! [A,,,A,,]!<(![D,F,] [G,,,G,,]!<)![E,G,] | %5
!>(! [F,,,F,,][C,F,A,][F,A,C]!>)![A,,,A,,] [B,,,B,,]3 [A,,,A,,] | %6
"^cresc." [G,,,G,,][B,,E,G,] [E,,E,][C,G,] [D,,D,]2 [=E,,=E,][^F,,^F,] | %7
 G,[G,B,] F,[G,B,] =E,[C,G,] B,[G,=E] | z ([F,A,] [F,C])F,!<(! z ([B,,F,B,] [A,B,D])!<)!B, | %9
!f! [G,,,G,,].[B,,E,B,] !>![E,B,E]2 [A,,,A,,].[C,E,A,] !>![E,A,C]2 | %10
!>(! [F,,,F,,].[F,,A,,C,] !>![A,,C,F,]2!>)! [G,,,G,,].[G,,=B,,] !>![B,,F,]2 | %11
!<(! [C,,C,]2!<)!!>(! [C,,,C,,]2!>)!!<(! [C,,C,]2!<)!!>)!!>(! [C,,,C,,]2 | %12
!<(! [C,,C,]2!<)!!>(! [C,,,C,,]2!>)! [C,,C,]2 ([C,C][_B,,_B,]) | %13
 [A,,A,]([G,,G,][F,,F,][G,,G,]) [A,,A,]"^cresc."[F,,F,] [D,,D,][=E,,=E,] | %14
 [F,,F,][A,,A,] [D,D][C,C] [=B,,=B,][A,,A,] [G,,G,][F,,F,] | %15
 ([E,,E,]/C,/G,/C/) !>![F,=B,]2 ([E,,E,]/C,/G,/C/) !>![F,B,]2 | %16
 [E,,E,][C,,C,] [B,,,B,,][A,,,A,,] ([G,,,G,,]2 [F,,,F,,][E,,,E,,]) | %17
!<(! D,,2 C,,B,,, (=A,,,3!<)! B,,,) |!f! !>![G,,,G,,]2 !>![F,,,F,,]2 !>![E,,,E,,]2 !>![F,,,F,,]2 | %19
 !tenuto![G,,,G,,]2 !tenuto![F,,,F,,]2 !tenuto![E,,,E,,]2 !tenuto![G,,,G,,]2 | %20
!mf! .[D,,,D,,].[B,,D,G,] [D,G,B,]2- [D,G,B,][B,,D,G,] [B,DF]2- | %21
"^dolce" [B,DF]/(D,/B,/D/[K:treble]!<(! G/D/B,/G/)!<)!!>(! (B/G/B,/!>)!C/[K:bass] D/B,/G,/B,,/) | %22
!p! z/"^meno mosso" (E,/B,/G,/!<(! E2)!<)! z/ (E,/C/A,/!>)!!>(! [E,E]2) | %23
 z/ (E,/B,/G,/"^dim." [E,E]2)!>(! z/ (E,/A,/E,/!>)! C2) |!p! z/ (C,/G,/=E,/ C2) z/ (C,/F,/C,/ C2) | %25
"^poco animando" [B,,,B,,]2 z2 [E,,E,]2 z2 | [G,,,A,,]/(E,/C/A,/ x2 [_F,,,_G,,]/)(E,/B,/_G,/ x2) | %27
 [E,,,F,,]/"^cresc."(C,/!<(!F,/C,/ x2!<)! ([E,,E,]/)C,/A,/F,/ x2) | %28
 [C,,D,]/(F,/B,/F,/ x2 [G,,A,]/)(B,/D/B,/ x2) |!p! [_F,,,_G,,]/(B,,/_G,/E,/ x2 (G,)_D/G/ x2) | %30
 ([_C,,_C,]_G,/_C/"^dim."!>(! z2!>)![K:treble] (C)_G/_c/ z2) |!pp! [_c_g]6!pp! z2 | %32
 (!arpeggio!.[=G,,B,,=G,]2 !arpeggio!.[_G,,B,,_G,]2 !arpeggio!.[F,,B,,F,]2) z2 | %33
 (!arpeggio!.[=E,,G,,=E,]2 !arpeggio!.[D,,G,,D,]2 !arpeggio!.[C,,G,,C,]2)!<(! .[C,,C,]2!<)! | %34
 x2 ([_E,G,]2 [D,F,]2 [C,E,]2) |!mf! [G,,E,B,]2!>(! [G,,,G,,]2 [C,,C,]2!>)! [C,E,]2 | %36
 [F,,C,E,A,]2"^dim."!>(! [F,,,F,,]2!>)! [B,,,B,,]4 |!pp! z2 [E,,,E,,]4 [E,,,E,,]2- | %38
 [E,,,E,,B,,]8 |] %39
V:5
 x8 | x8 | x8 | x8 | x8 | x8 | x8 | [G,,G,]2 [F,,F,]2 [=E,,=E,]2 [B,,B,]2 | %8
 [A,,A,]3 [F,,F,] [B,,,B,,]3 [B,,B,] | x8 | x8 | x8 | x8 | x8 | x8 | x8 | x8 | x8 | x8 | x8 | x8 | %21
 x2[K:treble] x4[K:bass] x2 | [_D,,_D,]4 [C,,C,]4 | [B,,,B,,]4 [A,,,A,,]4 | [G,,,G,,]4 [F,,,F,,]4 | %25
 x8 | x8 | x8 | x8 | x8 | x4[K:treble] x4 | x8 | x8 | x8 | .[F,,,F,,]2 A,,6 | x8 | x8 | x8 | x8 |] %39

